svg/video_file.svg

<svg xmlns="http://www.w3.org/2000/svg" viewBox="0 0 32 32" enable-background="new 0 0 32 32"><path d="M 6 3 L 6 4 L 6 28 L 6 29 L 7 29 L 25 29 L 26 29 L 26 28 L 26 10 L 26 9.59375 L 25.71875 9.28125 L 19.71875 3.28125 L 19.40625 3 L 19 3 L 7 3 L 6 3 z M 8 5 L 18 5 L 18 10 L 18 11 L 19 11 L 24 11 L 24 27 L 8 27 L 8 5 z M 20 6.4375 L 22.5625 9 L 20 9 L 20 6.4375 z M 13 13.21875 L 13 15 L 13 21 L 13 22.78125 L 14.5 21.84375 L 19.5 18.84375 L 20.9375 18 L 19.5 17.15625 L 14.5 14.15625 L 13 13.21875 z M 15 16.75 L 17.09375 18 L 15 19.25 L 15 16.75 z" color="#000" overflow="visible" enable-background="accumulate"/></svg>

<svg xmlns="http://www.w3.org/2000/svg" viewBox="0 0 32 32"><path d="M6 3v26h20V9.594l-.28-.313-6-6-.314-.28H6zm2 2h10v6h6v16H8V5zm12 1.438L22.563 9H20V6.437zm-7 6.78v9.562l1.5-.936 5-3L20.938 18l-1.438-.844-5-3-1.5-.937zm2 3.532L17.094 18 15 19.25v-2.5z"/></svg>
